tools/download-figma-icons/icons/solid/carreer.svg

<svg width="24" height="24" viewBox="0 0 24 24" fill="none" xmlns="http://www.w3.org/2000/svg">
<path fill-rule="evenodd" clip-rule="evenodd" d="M13.8825 13.3875V14.85C13.8825 15.27 13.545 15.6 13.1325 15.6H10.185C9.76499 15.6 9.43499 15.27 9.43499 14.85V13.3875H0.0074932V19.56C0.0074932 20.655 1.13999 21.5025 2.59499 21.5025H21.405C22.86 21.5025 24 20.655 24 19.56V13.3875H13.8825ZM14.5724 3.74325L14.5725 3.74325V5.25H14.5724V5.25048H9.42742V3.75048L9.4275 3.75048V3.75L12.7269 3.74567L14.5724 3.74298V3.74325ZM21.405 5.25H16.0725V3.74325C16.0725 2.9175 15.3975 2.25 14.58 2.25H9.4275C8.6025 2.25 7.935 2.9175 7.935 3.74325V5.25H2.595C1.1625 5.25 0 6.285 0 7.545V11.8875H9.435V10.425C9.435 10.0125 9.765 9.675 10.185 9.675H13.1325C13.545 9.675 13.8825 10.0125 13.8825 10.425V11.8875H24V7.545C24 6.285 22.8375 5.25 21.405 5.25ZM10.935 14.1H12.3825V11.175H10.935V14.1Z" fill="black"/>
</svg>

<svg xmlns="http://www.w3.org/2000/svg" width="24" height="24" fill="none" viewBox="0 0 24 24"><path fill="currentColor" fill-rule="evenodd" d="M13.883 13.388v1.462c0 .42-.338.75-.75.75h-2.948c-.42 0-.75-.33-.75-.75v-1.463H.007v6.173c0 1.095 1.133 1.943 2.588 1.943h18.81c1.455 0 2.595-.848 2.595-1.943v-6.172zm.69-9.645V5.25H9.426v-1.5l3.3-.004zm6.832 1.507h-5.332V3.743c0-.825-.675-1.493-1.493-1.493H9.428c-.826 0-1.493.668-1.493 1.493V5.25h-5.34C1.163 5.25 0 6.285 0 7.545v4.342h9.435v-1.462c0-.413.33-.75.75-.75h2.948c.412 0 .75.337.75.75v1.462H24V7.546c0-1.26-1.163-2.295-2.595-2.295m-10.47 8.85h1.447v-2.925h-1.447z" clip-rule="evenodd"/></svg>
